X: 0
T: The Boar's Head Carol
Z: English Traditional
Z: Copyright © 2004 by Douglas D. Anderson
Z: Released To The Public Domain
L: 1/4
M: 4/4
Q: 1/4=105
V: P1 name="Staff"
%%MIDI program 1 19
V: P2 name="Staff-1"
%%MIDI program 2 60
V: P3 name="Staff-2"
%%MIDI program 3 57
V: P4 name="Staff-3"
%%MIDI program 4 58
K: C
[V: P1]  G | c2 c3/ c/ | B c G3/ E/ | F F A3/ F/ | G3/ G/ c G/ G/ | c c/ c/ c c | B c G3/ E/ | F F A3/ F/ | G3/ G/ c2 | c3/ c/ B B | c c G2 | F F A3/ F/ | G3/ G/ c2|]
w: The boar’s head in hand bear I, Be- deck'd with bays and rose- ma ry. And I pray you, my mas- ters, be mer- ry Quot es- tis in con- vi vi o Ca- put a- pri de- fe ro Red- dens lau- des Do- mi no
[V: P2] z | z4 | z4 | z4 | z4 | z4 | z4 | z4 | z4 | G3/ G/ G G | E E E2 | C C F3/ F/ | E3/ D/ E2|]
[V: P3] z | z4 | z4 | z4 | z4 | z4 | z4 | z4 | z4 | E3/ E/ D D | C C B,2 | A, A, D D | C B, G,2|]
[V: P4] z | z4 | z4 | z4 | z4 | z4 | z4 | z4 | z4 | C3/ C/ G, G, | A, A, E,2 | F, F, D, D, | E, G, C,2|]

